X:9178
T:Lady on The Island
R:reel
S:(Sharon Shannon)
H:
N:
D:Galway Arts Festival Concert
Z:Adrian Scahill
M:4/4
L:1/8
K:D
BAFB AFEF|D2FA BcdB|BAFB AFAB|defd e2dB|\
BAFB AFEF|D2FA BAdB|BAFB AFAB|defd e2dA||
defd efgb|afdf edBA|defd efge|afdf eABc|\
defd efge|afdf edBA|defg afbf|afdf e2dB||
